images/service_mobile_development.svg

<svg width="151" height="119" viewBox="0 0 151 119" fill="none" xmlns="http://www.w3.org/2000/svg">
<g clip-path="url(#clip0)">
<path d="M73.9392 27.2229H73.3178V10.3017C73.3178 7.70423 72.2798 5.21319 70.4322 3.37654C68.5847 1.53988 66.0788 0.50806 63.4659 0.508057H27.4023C26.1085 0.508052 24.8274 0.761366 23.6321 1.25354C22.4368 1.74571 21.3507 2.46709 20.4359 3.37651C19.521 4.28592 18.7953 5.36555 18.3002 6.55376C17.8051 7.74198 17.5503 9.01549 17.5503 10.3016V103.133C17.5503 104.419 17.8051 105.693 18.3002 106.881C18.7953 108.069 19.521 109.149 20.4358 110.058C21.3507 110.968 22.4367 111.689 23.632 112.181C24.8273 112.673 26.1084 112.927 27.4022 112.927H63.4658C64.7596 112.927 66.0407 112.673 67.236 112.181C68.4313 111.689 69.5174 110.968 70.4322 110.058C71.347 109.149 72.0727 108.069 72.5679 106.881C73.063 105.693 73.3178 104.419 73.3178 103.133V39.2678H73.9392V27.2229Z" fill="#3F3D56"/>
<path d="M63.789 3.28763H59.0815C59.298 3.81524 59.3806 4.38767 59.3221 4.95451C59.2636 5.52134 59.0658 6.06519 58.7461 6.53812C58.4263 7.01105 57.9945 7.39856 57.4886 7.66652C56.9828 7.93447 56.4184 8.07465 55.8452 8.07469H35.1848C34.6116 8.07465 34.0472 7.93447 33.5413 7.66652C33.0354 7.39856 32.6036 7.01105 32.2839 6.53812C31.9641 6.06518 31.7663 5.52135 31.7078 4.95451C31.6493 4.38767 31.732 3.81524 31.9485 3.28763H27.5517C25.6004 3.28763 23.729 4.05817 22.3493 5.42976C20.9695 6.80135 20.1943 8.66163 20.1943 10.6014V103.297C20.1943 104.257 20.3846 105.208 20.7544 106.096C21.1241 106.983 21.6661 107.789 22.3492 108.468C23.0324 109.147 23.8435 109.686 24.7361 110.054C25.6288 110.421 26.5855 110.61 27.5516 110.61H63.789C65.7402 110.61 67.6116 109.84 68.9914 108.468C70.3711 107.097 71.1463 105.236 71.1463 103.297V10.6014C71.1463 9.64091 70.956 8.68986 70.5862 7.80252C70.2165 6.91517 69.6746 6.10891 68.9914 5.42977C68.3082 4.75063 67.4971 4.2119 66.6045 3.84435C65.7119 3.4768 64.7552 3.28763 63.789 3.28763H63.789ZM62.9981 46.2896C62.9966 46.7916 62.7953 47.2726 62.4383 47.6275C62.0812 47.9825 61.5974 48.1825 61.0924 48.184H51.8815C51.3766 48.1825 50.8927 47.9825 50.5356 47.6275C50.1786 47.2726 49.9773 46.7916 49.9758 46.2896V45.816C49.9773 45.314 50.1786 44.833 50.5356 44.4781C50.8927 44.1231 51.3766 43.923 51.8815 43.9216H61.0924C61.5973 43.923 62.0812 44.1231 62.4383 44.4781C62.7953 44.833 62.9966 45.314 62.9981 45.816V46.2896ZM64.0303 37.9226C64.0289 38.4246 63.8276 38.9056 63.4705 39.2605C63.1135 39.6155 62.6296 39.8156 62.1246 39.817H29.0926C28.5876 39.8156 28.1038 39.6155 27.7467 39.2605C27.3896 38.9056 27.1884 38.4246 27.1869 37.9226V37.449C27.1884 36.947 27.3896 36.466 27.7467 36.1111C28.1038 35.7561 28.5876 35.5561 29.0926 35.5546H62.1246C62.6296 35.5561 63.1135 35.7561 63.4705 36.1111C63.8276 36.466 64.0289 36.947 64.0303 37.449V37.9226ZM64.0303 29.5556C64.0289 30.0576 63.8276 30.5386 63.4705 30.8936C63.1135 31.2485 62.6296 31.4486 62.1246 31.4501H29.0926C28.5876 31.4486 28.1038 31.2485 27.7467 30.8936C27.3896 30.5386 27.1884 30.0576 27.1869 29.5556V29.082C27.1884 28.5801 27.3896 28.0991 27.7467 27.7441C28.1038 27.3892 28.5876 27.1891 29.0926 27.1876H62.1246C62.6296 27.1891 63.1135 27.3892 63.4705 27.7441C63.8276 28.0991 64.0289 28.5801 64.0303 29.082V29.5556ZM64.0303 21.1887C64.0289 21.6906 63.8276 22.1716 63.4705 22.5266C63.1135 22.8815 62.6296 23.0816 62.1246 23.0831H29.0926C28.5876 23.0816 28.1038 22.8815 27.7467 22.5266C27.3896 22.1716 27.1884 21.6906 27.1869 21.1887V20.7151C27.1884 20.2131 27.3896 19.7321 27.7467 19.3771C28.1038 19.0222 28.5876 18.8221 29.0926 18.8207H62.1246C62.6296 18.8221 63.1135 19.0222 63.4705 19.3771C63.8276 19.7321 64.0289 20.2131 64.0303 20.7151V21.1887Z" fill="white"/>
<path d="M29.8075 38.8698C30.4214 38.8698 30.9191 38.3751 30.9191 37.7648C30.9191 37.1545 30.4214 36.6597 29.8075 36.6597C29.1935 36.6597 28.6958 37.1545 28.6958 37.7648C28.6958 38.3751 29.1935 38.8698 29.8075 38.8698Z" fill="white"/>
<path d="M33.4598 38.8698C34.0738 38.8698 34.5715 38.3751 34.5715 37.7648C34.5715 37.1545 34.0738 36.6597 33.4598 36.6597C32.8459 36.6597 32.3481 37.1545 32.3481 37.7648C32.3481 38.3751 32.8459 38.8698 33.4598 38.8698Z" fill="white"/>
<path d="M37.1121 38.8698C37.7261 38.8698 38.2238 38.3751 38.2238 37.7648C38.2238 37.1545 37.7261 36.6597 37.1121 36.6597C36.4982 36.6597 36.0005 37.1545 36.0005 37.7648C36.0005 38.3751 36.4982 38.8698 37.1121 38.8698Z" fill="white"/>
<path d="M40.765 38.8698C41.3789 38.8698 41.8766 38.3751 41.8766 37.7648C41.8766 37.1545 41.3789 36.6597 40.765 36.6597C40.151 36.6597 39.6533 37.1545 39.6533 37.7648C39.6533 38.3751 40.151 38.8698 40.765 38.8698Z" fill="white"/>
<path d="M52.6751 47.2368C53.2891 47.2368 53.7868 46.7421 53.7868 46.1317C53.7868 45.5214 53.2891 45.0267 52.6751 45.0267C52.0612 45.0267 51.5635 45.5214 51.5635 46.1317C51.5635 46.7421 52.0612 47.2368 52.6751 47.2368Z" fill="white"/>
<path d="M56.328 47.2368C56.9419 47.2368 57.4396 46.7421 57.4396 46.1317C57.4396 45.5214 56.9419 45.0267 56.328 45.0267C55.714 45.0267 55.2163 45.5214 55.2163 46.1317C55.2163 46.7421 55.714 47.2368 56.328 47.2368Z" fill="white"/>
<path d="M59.9808 47.2368C60.5947 47.2368 61.0924 46.7421 61.0924 46.1317C61.0924 45.5214 60.5947 45.0267 59.9808 45.0267C59.3668 45.0267 58.8691 45.5214 58.8691 46.1317C58.8691 46.7421 59.3668 47.2368 59.9808 47.2368Z" fill="white"/>
<path d="M64.2856 60.45H26.6134C25.7284 60.45 24.8796 60.7995 24.2538 61.4216C23.6279 62.0437 23.2764 62.8875 23.2764 63.7673V82.0132C23.2764 82.8931 23.628 83.7368 24.2538 84.3589C24.8796 84.9811 25.7284 85.3306 26.6134 85.3306H64.2856C65.1707 85.3306 66.0195 84.9811 66.6453 84.359C67.2711 83.7368 67.6227 82.8931 67.6227 82.0133V63.7673C67.6227 62.8875 67.2711 62.0437 66.6453 61.4216C66.0195 60.7995 65.1707 60.45 64.2856 60.45H64.2856ZM25.6814 62.7129C25.7558 62.6995 27.5198 62.4011 28.9805 63.2749C30.4411 64.1484 31.0023 65.8377 31.0254 65.9091L31.0845 66.0912L30.8949 66.1247C30.6245 66.1666 30.3511 66.1866 30.0774 66.1843C29.2092 66.2008 28.3524 65.9862 27.5957 65.5626C26.1351 64.6892 25.574 62.9999 25.5509 62.9285L25.4918 62.7463L25.6814 62.7129ZM33.859 79.6531H27.1399C26.6498 79.6531 26.1798 79.4596 25.8333 79.1151C25.4868 78.7707 25.2921 78.3035 25.2921 77.8163C25.2921 77.3291 25.4868 76.8619 25.8333 76.5175C26.1798 76.173 26.6498 75.9795 27.1399 75.9795H33.859C34.3491 75.9795 34.8191 76.173 35.1656 76.5175C35.5121 76.8619 35.7068 77.3291 35.7068 77.8163C35.7068 78.3035 35.5121 78.7707 35.1656 79.1151C34.8191 79.4596 34.3491 79.6531 33.859 79.6531ZM64.4311 79.3192C64.4295 79.8501 64.2167 80.3589 63.839 80.7343C63.4613 81.1098 62.9495 81.3214 62.4154 81.323H57.376C56.8419 81.3214 56.3301 81.1098 55.9524 80.7343C55.5747 80.3589 55.3618 79.8501 55.3603 79.3192V76.3134C55.3618 75.7825 55.5747 75.2737 55.9524 74.8983C56.3301 74.5228 56.8419 74.3112 57.376 74.3096H62.4154C62.9495 74.3112 63.4613 74.5228 63.839 74.8983C64.2167 75.2737 64.4295 75.7825 64.4311 76.3134L64.4311 79.3192Z" fill="#00C2CB"/>
<path d="M59.0009 78.6998H56.9747C56.83 78.6998 56.6913 78.7569 56.589 78.8586C56.4867 78.9603 56.4292 79.0982 56.4292 79.2421C56.4292 79.3859 56.4867 79.5238 56.589 79.6255C56.6913 79.7272 56.83 79.7843 56.9747 79.7843H59.0009C59.1456 79.7843 59.2843 79.7272 59.3866 79.6255C59.4889 79.5238 59.5464 79.3859 59.5464 79.2421C59.5464 79.0982 59.4889 78.9603 59.3866 78.8586C59.2843 78.7569 59.1456 78.6998 59.0009 78.6998Z" fill="#3F3D56"/>
<path d="M62.7416 78.6998H60.7154C60.5707 78.6998 60.432 78.7569 60.3297 78.8586C60.2274 78.9603 60.1699 79.0982 60.1699 79.2421C60.1699 79.3859 60.2274 79.5238 60.3297 79.6255C60.432 79.7272 60.5707 79.7843 60.7154 79.7843H62.7416C62.8863 79.7843 63.025 79.7272 63.1273 79.6255C63.2296 79.5238 63.2871 79.3859 63.2871 79.2421C63.2871 79.0982 63.2296 78.9603 63.1273 78.8586C63.025 78.7569 62.8863 78.6998 62.7416 78.6998Z" fill="#3F3D56"/>
<path d="M59.0004 77.1689H56.9742C56.8295 77.1689 56.6908 77.2261 56.5885 77.3278C56.4862 77.4295 56.4287 77.5674 56.4287 77.7113C56.4287 77.8551 56.4862 77.993 56.5885 78.0947C56.6908 78.1964 56.8295 78.2535 56.9742 78.2535H59.0004C59.1451 78.2535 59.2838 78.1964 59.3861 78.0947C59.4885 77.993 59.5459 77.8551 59.5459 77.7113C59.5459 77.5674 59.4885 77.4295 59.3861 77.3278C59.2838 77.2261 59.1451 77.1689 59.0004 77.1689Z" fill="#3F3D56"/>
<path d="M62.7412 77.1689H60.715C60.5703 77.1689 60.4315 77.2261 60.3292 77.3278C60.2269 77.4295 60.1694 77.5674 60.1694 77.7113C60.1694 77.8551 60.2269 77.993 60.3292 78.0947C60.4315 78.1964 60.5703 78.2535 60.715 78.2535H62.7411C62.8858 78.2535 63.0246 78.1964 63.1269 78.0947C63.2292 77.993 63.2867 77.8551 63.2867 77.7113C63.2867 77.5674 63.2292 77.4295 63.1269 77.3278C63.0246 77.2261 62.8858 77.1689 62.7411 77.1689H62.7412Z" fill="#3F3D56"/>
<path d="M59.0004 75.6692H56.9742C56.8295 75.6692 56.6908 75.7263 56.5885 75.828C56.4862 75.9297 56.4287 76.0676 56.4287 76.2114C56.4287 76.3553 56.4862 76.4932 56.5885 76.5949C56.6908 76.6966 56.8295 76.7537 56.9742 76.7537H59.0004C59.1451 76.7537 59.2838 76.6966 59.3861 76.5949C59.4885 76.4932 59.5459 76.3553 59.5459 76.2114C59.5459 76.0676 59.4885 75.9297 59.3861 75.828C59.2838 75.7263 59.1451 75.6692 59.0004 75.6692Z" fill="#3F3D56"/>
<path d="M62.7412 75.6692H60.715C60.5703 75.6692 60.4315 75.7263 60.3292 75.828C60.2269 75.9297 60.1694 76.0676 60.1694 76.2114C60.1694 76.3553 60.2269 76.4932 60.3292 76.5949C60.4315 76.6966 60.5703 76.7537 60.715 76.7537H62.7411C62.8858 76.7537 63.0246 76.6966 63.1269 76.5949C63.2292 76.4932 63.2867 76.3553 63.2867 76.2114C63.2867 76.0676 63.2292 75.9297 63.1269 75.828C63.0246 75.7263 62.8858 75.6692 62.7411 75.6692H62.7412Z" fill="#3F3D56"/>
<path d="M90.3781 67.3232H85.4644V72.2078H90.3781V67.3232Z" fill="#00C2CB"/>
<path d="M79.6729 70.2888H87.7455V78.3136H79.6729V70.2888ZM87.3945 70.6378H80.0238V77.9647H87.3945V70.6378Z" fill="#3F3D56"/>
<path d="M4.91376 27.0247H0V31.9094H4.91376V27.0247Z" fill="#FFBD59"/>
<path d="M10.7049 28.9437H2.63232V20.9189H10.7049V28.9437ZM2.98331 28.5948H10.3539V21.2678H2.98331V28.5948Z" fill="#3F3D56"/>
<path d="M114.61 115.894H112.458L111.435 107.644H114.61L114.61 115.894Z" fill="#FFB8B8"/>
<path d="M110.921 115.282H115.07V117.879H108.309C108.309 117.191 108.584 116.53 109.074 116.043C109.564 115.556 110.228 115.282 110.921 115.282Z" fill="#2F2E41"/>
<path d="M125.315 115.894H123.163L122.14 107.644H125.315L125.315 115.894Z" fill="#FFB8B8"/>
<path d="M121.626 115.282H125.775V117.879H119.013C119.013 117.191 119.288 116.53 119.778 116.043C120.268 115.556 120.933 115.282 121.626 115.282Z" fill="#2F2E41"/>
<path d="M103.817 86.3914C103.662 86.1647 103.559 85.907 103.515 85.6365C103.471 85.366 103.488 85.0893 103.563 84.8258C103.639 84.5622 103.771 84.3184 103.952 84.1114C104.132 83.9043 104.356 83.7392 104.608 83.6275L111.922 63.5888L115.521 65.5412L107.17 84.6909C107.331 85.1236 107.326 85.5999 107.157 86.0295C106.988 86.4591 106.666 86.8122 106.253 87.0218C105.84 87.2314 105.363 87.283 104.914 87.1668C104.465 87.0506 104.075 86.7747 103.817 86.3914Z" fill="#FFB8B8"/>
<path d="M124.215 90.1567C123.976 90.0204 123.77 89.8337 123.611 89.6097C123.453 89.3856 123.345 89.1297 123.297 88.86C123.249 88.5903 123.26 88.3133 123.331 88.0486C123.402 87.7838 123.531 87.5378 123.708 87.3277L121.442 66.1302L125.537 66.3162L126.479 87.1667C126.814 87.4856 127.02 87.9157 127.058 88.3754C127.096 88.8352 126.962 89.2927 126.683 89.6613C126.404 90.0298 125.999 90.2838 125.544 90.3751C125.089 90.4664 124.616 90.3887 124.215 90.1567V90.1567Z" fill="#FFB8B8"/>
<path d="M117.681 59.8771C120.062 59.8771 121.992 57.9588 121.992 55.5924C121.992 53.226 120.062 51.3076 117.681 51.3076C115.301 51.3076 113.371 53.226 113.371 55.5924C113.371 57.9588 115.301 59.8771 117.681 59.8771Z" fill="#FFB8B8"/>
<path d="M124.187 85.3358H111.193L111.209 85.2352C111.232 85.085 113.524 70.1558 111.834 65.2717C111.664 64.7917 111.679 64.2663 111.875 63.7966C112.072 63.3269 112.437 62.9461 112.899 62.7275H112.899C115.316 61.5962 119.955 60.203 123.87 63.584C124.447 64.0897 124.897 64.7217 125.185 65.4301C125.473 66.1384 125.591 66.9037 125.531 67.6654L124.187 85.3358Z" fill="#CCCCCC"/>
<path d="M113.689 72.3621L107.839 71.1822L110.581 64.7223C110.745 64.0966 111.152 63.5612 111.713 63.2334C112.274 62.9056 112.942 62.8123 113.572 62.974C114.202 63.1356 114.742 63.539 115.073 64.0956C115.404 64.6522 115.499 65.3166 115.338 65.943L113.689 72.3621Z" fill="#CCCCCC"/>
<path d="M121.182 74.5528L120.83 66.5382C120.564 65.0316 121.431 63.6074 122.766 63.3746C124.1 63.1426 125.404 64.1875 125.671 65.7052L126.993 73.1941L121.182 74.5528Z" fill="#CCCCCC"/>
<path d="M123.755 84.3763C125.846 92.2923 126.074 102.357 125.51 113.335L122.702 112.986L117.613 92.0522L114.805 113.335L111.647 113.161C110.703 101.642 109.784 91.7529 111.296 85.2485L123.755 84.3763Z" fill="#2F2E41"/>
<path d="M120.522 58.9038C119.718 59.7552 118.224 59.2981 118.12 58.1349C118.111 58.0446 118.112 57.9537 118.121 57.8635C118.175 57.3483 118.475 56.8805 118.403 56.3364C118.387 56.201 118.336 56.072 118.256 55.9616C117.615 55.1086 116.111 56.3431 115.506 55.5709C115.135 55.0974 115.571 54.352 115.287 53.8228C114.911 53.1244 113.799 53.4689 113.101 53.0864C112.325 52.6608 112.371 51.4771 112.882 50.757C113.505 49.8789 114.598 49.4103 115.677 49.3428C116.756 49.2753 117.827 49.5652 118.834 49.9554C119.979 50.3987 121.113 51.0114 121.818 52.0117C122.674 53.2282 122.757 54.8637 122.328 56.2861C122.068 57.1514 121.178 58.2085 120.522 58.9038Z" fill="#2F2E41"/>
<path d="M150.066 118.089H83.2043C83.1578 118.089 83.1131 118.07 83.0802 118.038C83.0473 118.005 83.0288 117.961 83.0288 117.914C83.0288 117.868 83.0473 117.824 83.0802 117.791C83.1131 117.758 83.1578 117.74 83.2043 117.74H150.066C150.113 117.74 150.158 117.758 150.19 117.791C150.223 117.824 150.242 117.868 150.242 117.914C150.242 117.961 150.223 118.005 150.19 118.038C150.158 118.07 150.113 118.089 150.066 118.089Z" fill="#3F3D56"/>
</g>
<defs>
<clipPath id="clip0">
<rect width="150.242" height="117.581" fill="white" transform="translate(0 0.508057)"/>
</clipPath>
</defs>
</svg>

<svg xmlns="http://www.w3.org/2000/svg" xmlns:xlink="http://www.w3.org/1999/xlink" width="151" height="119" fill="none" xmlns:v="https://vecta.io/nano"><g clip-path="url(#A)"><path d="M73.94 27.223h-.62v-16.92c0-2.597-1.038-5.09-2.886-6.925A9.88 9.88 0 0 0 63.466.508H27.402c-1.294 0-2.575.253-3.77.745s-2.28 1.214-3.196 2.123A9.79 9.79 0 0 0 18.3 6.554c-.495 1.188-.75 2.462-.75 3.748v92.83c0 1.286.255 2.56.75 3.748s1.22 2.268 2.136 3.177 2 1.63 3.196 2.123 2.476.746 3.77.746h36.064c1.294 0 2.575-.254 3.77-.746s2.28-1.213 3.196-2.123a9.79 9.79 0 0 0 2.136-3.177c.495-1.188.75-2.462.75-3.748V39.268h.62V27.223z" fill="#3f3d56"/><g fill="#fff"><path d="M63.79 3.288h-4.708c.217.528.3 1.1.24 1.667a3.46 3.46 0 0 1-.576 1.584 3.49 3.49 0 0 1-1.258 1.128 3.51 3.51 0 0 1-1.643.408h-20.66a3.51 3.51 0 0 1-1.644-.408 3.49 3.49 0 0 1-1.257-1.128 3.46 3.46 0 0 1-.576-1.584c-.058-.567.024-1.14.24-1.667h-4.397a7.38 7.38 0 0 0-5.202 2.142 7.29 7.29 0 0 0-2.155 5.172v92.696a7.28 7.28 0 0 0 .56 2.799 7.31 7.31 0 0 0 1.595 2.372 7.37 7.37 0 0 0 2.387 1.586c.893.367 1.85.556 2.816.556H63.79a7.38 7.38 0 0 0 5.202-2.142 7.29 7.29 0 0 0 2.155-5.171V10.6c0-.96-.2-1.912-.56-2.8a7.31 7.31 0 0 0-1.595-2.373 7.36 7.36 0 0 0-2.387-1.585c-.893-.368-1.85-.557-2.815-.557h0zm-.79 43.002c-.002.502-.203.983-.56 1.338s-.84.555-1.346.556h-9.21c-.505-.002-.99-.2-1.346-.556s-.558-.836-.56-1.338v-.474c.002-.502.203-.983.56-1.338s.84-.555 1.346-.556h9.21c.505.001.99.202 1.346.556s.558.836.56 1.338v.474zm1.032-8.367c-.001.502-.203.983-.56 1.338s-.84.555-1.346.556H29.093c-.505-.001-.99-.202-1.346-.556s-.558-.836-.56-1.338v-.474c.002-.502.203-.983.56-1.338s.84-.555 1.346-.556h33.032c.505.002.99.202 1.346.556s.558.836.56 1.338v.474zm0-8.367c-.001.502-.203.983-.56 1.338s-.84.555-1.346.556H29.093c-.505-.002-.99-.202-1.346-.556s-.558-.836-.56-1.338v-.474c.002-.502.203-.983.56-1.338s.84-.555 1.346-.556h33.032c.505.002.99.202 1.346.556s.558.836.56 1.338v.474zm0-8.367c-.001.502-.203.983-.56 1.338s-.84.555-1.346.557H29.093c-.505-.002-.99-.202-1.346-.557s-.558-.836-.56-1.338v-.474c.002-.502.203-.983.56-1.338s.84-.555 1.346-.556h33.032c.505.001.99.202 1.346.556s.558.836.56 1.338v.474z"/><use xlink:href="#B"/><path d="M33.46 38.87a1.11 1.11 0 0 0 1.112-1.105 1.111 1.111 0 1 0-2.223 0 1.11 1.11 0 0 0 1.112 1.105zm3.652 0a1.11 1.11 0 0 0 1.112-1.105 1.111 1.111 0 1 0-2.223 0 1.11 1.11 0 0 0 1.112 1.105zm3.653 0a1.11 1.11 0 0 0 1.112-1.105 1.111 1.111 0 1 0-2.223 0 1.11 1.11 0 0 0 1.112 1.105zm11.9 8.367a1.11 1.11 0 0 0 1.112-1.105 1.111 1.111 0 1 0-2.223 0 1.11 1.11 0 0 0 1.112 1.105zm3.653 0a1.11 1.11 0 0 0 1.112-1.105 1.111 1.111 0 1 0-2.223 0 1.11 1.11 0 0 0 1.112 1.105zm3.652 0a1.11 1.11 0 0 0 1.112-1.105 1.111 1.111 0 1 0-2.223 0 1.11 1.11 0 0 0 1.112 1.105z"/></g><path d="M64.286 60.45H26.613c-.885 0-1.734.35-2.36.972s-.977 1.466-.977 2.346v18.246c0 .88.352 1.724.977 2.346s1.475.972 2.36.972h37.672c.885 0 1.734-.35 2.36-.972s.977-1.466.977-2.346V63.767c0-.88-.352-1.724-.977-2.346s-1.475-.972-2.36-.972h0zM25.68 62.713c.074-.013 1.838-.312 3.3.562s2.022 2.563 2.045 2.634l.06.182-.2.034a5.06 5.06 0 0 1-.817.06 4.89 4.89 0 0 1-2.482-.622c-1.46-.873-2.022-2.563-2.045-2.634l-.06-.182.2-.033zm8.178 16.94h-6.72c-.5 0-.96-.194-1.307-.538a1.83 1.83 0 0 1 0-2.598c.346-.344.816-.538 1.307-.538h6.72c.5 0 .96.194 1.307.538a1.83 1.83 0 0 1 0 2.598c-.346.344-.816.538-1.307.538zm30.572-.334c-.002.53-.214 1.04-.592 1.415a2.03 2.03 0 0 1-1.424.589h-5.04a2.03 2.03 0 0 1-1.424-.589c-.378-.375-.59-.884-.592-1.415v-3.006c.002-.53.214-1.04.592-1.415a2.03 2.03 0 0 1 1.424-.589h5.04a2.03 2.03 0 0 1 1.424.589c.378.375.59.884.592 1.415v3.006z" fill="#00c2cb"/><g fill="#3f3d56"><use xlink:href="#C"/><path d="M62.742 78.7h-2.026c-.145 0-.283.057-.386.16a.54.54 0 0 0 0 .767c.102.102.24.16.386.16h2.026c.145 0 .283-.057.386-.16a.54.54 0 0 0 0-.767c-.102-.102-.24-.16-.386-.16zM59 77.17h-2.026c-.145 0-.283.057-.386.16a.54.54 0 0 0 0 .767c.102.102.24.16.386.16H59c.145 0 .283-.057.386-.16a.54.54 0 0 0 0-.767c-.102-.102-.24-.16-.386-.16z"/><use xlink:href="#D"/><path d="M59 75.67h-2.026c-.145 0-.283.057-.386.16a.54.54 0 0 0 0 .767c.102.102.24.16.386.16H59c.145 0 .283-.057.386-.16a.54.54 0 0 0 0-.767c-.102-.102-.24-.16-.386-.16zm3.74 0h-2.026a.54.54 0 0 0-.386.927c.102.102.24.16.386.16h2.026c.145 0 .283-.057.386-.16a.54.54 0 0 0 0-.767c-.102-.102-.24-.16-.386-.16h0z"/></g><path d="M90.378 67.323h-4.914v4.885h4.914v-4.885z" fill="#00c2cb"/><path d="M79.673 70.29h8.073v8.025h-8.073V70.29zm7.722.35h-7.37v7.327h7.37v-7.327z" fill="#3f3d56"/><path d="M4.914 27.025H0v4.885h4.914v-4.885z" fill="#ffbd59"/><path d="M10.705 28.944H2.632V20.92h8.073v8.025zm-7.722-.35h7.37v-7.327h-7.37v7.327z" fill="#3f3d56"/><path d="M114.6 115.894h-2.152l-1.023-8.25h3.175v8.25z" fill="#ffb8b8"/><path d="M110.92 115.282h4.15v2.597h-6.76a2.59 2.59 0 0 1 .765-1.836 2.62 2.62 0 0 1 1.847-.761z" fill="#2f2e41"/><path d="M125.315 115.894h-2.152l-1.023-8.25h3.175v8.25z" fill="#ffb8b8"/><path d="M121.626 115.282h4.15v2.597h-6.762a2.59 2.59 0 0 1 .765-1.836c.5-.487 1.155-.76 1.848-.76z" fill="#2f2e41"/><g fill="#ffb8b8"><path d="M103.817 86.4a1.87 1.87 0 0 1-.302-.755c-.044-.27-.027-.547.048-.8a1.87 1.87 0 0 1 .389-.714 1.88 1.88 0 0 1 .656-.484l7.314-20.04 3.6 1.952-8.35 19.15a1.87 1.87 0 0 1-.013 1.339 1.89 1.89 0 0 1-.904.992c-.413.2-.9.26-1.34.145s-.84-.392-1.097-.775zm20.398 3.767c-.24-.136-.445-.323-.604-.547a1.87 1.87 0 0 1 .097-2.282l-2.266-21.197 4.095.186.942 20.85a1.9 1.9 0 0 1 .58 1.21c.04.46-.096.917-.375 1.286a1.89 1.89 0 0 1-1.14.714 1.91 1.91 0 0 1-1.33-.218h0zm-6.535-30.28c2.38 0 4.3-1.918 4.3-4.285s-1.93-4.285-4.3-4.285a4.29 4.29 0 0 0-4.3 4.285c0 2.367 1.93 4.285 4.3 4.285z"/></g><g fill="#ccc"><path d="M124.187 85.336h-12.994l.016-.1c.023-.15 2.315-15.08.625-19.964a2.05 2.05 0 0 1 .041-1.475 2.07 2.07 0 0 1 1.024-1.069h0c2.417-1.13 7.056-2.524 10.97.857.577.506 1.027 1.138 1.315 1.846a4.91 4.91 0 0 1 .346 2.235l-1.344 17.67z"/><path d="M113.7 72.362l-5.85-1.18 2.742-6.46c.164-.626.57-1.16 1.132-1.5a2.47 2.47 0 0 1 1.859-.259 2.45 2.45 0 0 1 1.5 1.122 2.43 2.43 0 0 1 .265 1.847l-1.65 6.42zm7.492 2.19l-.352-8.015c-.266-1.507.6-2.93 1.936-3.164s2.638.813 2.905 2.33l1.322 7.5-5.8 1.36z"/></g><g fill="#2f2e41"><path d="M123.755 84.376c2.1 7.916 2.32 17.98 1.755 28.96l-2.808-.35-5.1-20.934-2.808 21.283-3.158-.174c-.944-11.52-1.863-21.408-.35-27.912l12.46-.872zm-3.233-25.472c-.804.85-2.298.394-2.402-.77a1.28 1.28 0 0 1 .001-.27c.054-.515.354-.983.282-1.527a.8.8 0 0 0-.147-.375c-.64-.853-2.145.382-2.75-.4-.37-.474.065-1.22-.22-1.748-.376-.698-1.488-.354-2.186-.736-.776-.426-.73-1.6-.22-2.33.623-.878 1.716-1.347 2.795-1.414s2.15.222 3.157.613c1.145.443 2.28 1.056 2.984 2.056.856 1.217.94 2.852.5 4.274-.26.865-1.15 1.922-1.806 2.618z"/></g><path d="M150.066 118.09H83.204c-.047 0-.09-.02-.124-.05s-.05-.077-.05-.124.02-.1.05-.123.078-.05.124-.05h66.862c.047 0 .092.018.124.05s.052.077.052.123-.02.09-.052.124-.077.05-.124.05z" fill="#3f3d56"/></g><defs><clipPath id="A"><path fill="#fff" transform="translate(0 .508)" d="M0 0h150.242v117.58H0z"/></clipPath><path id="B" d="M29.808 38.87a1.11 1.11 0 0 0 1.112-1.105 1.11 1.11 0 1 0-2.223 0 1.11 1.11 0 0 0 1.112 1.105z"/><path id="C" d="M59 78.7h-2.026c-.145 0-.283.057-.386.16a.54.54 0 0 0 0 .767c.102.102.24.16.386.16H59c.145 0 .283-.057.386-.16a.54.54 0 0 0 0-.767c-.102-.102-.24-.16-.386-.16z"/><path id="D" d="M62.74 77.17h-2.026c-.145 0-.284.057-.386.16a.54.54 0 0 0 0 .767c.102.102.24.16.386.16h2.026c.145 0 .283-.057.386-.16a.54.54 0 0 0 0-.767c-.102-.102-.24-.16-.386-.16h0z"/></defs></svg>
